X:1
T:Title
%%score { ( 1 3 ) | 2 }
L:1/8
M:6/8
K:Eb
V:1 treble nm="Grand Piano"
V:3 treble 
V:2 bass 
V:1
 z3 z2[Q:1/4=78] [CE] | [Ec][D=B][Ec] [CA][_D_B][Ec] | BAF [CE]2 [CE] | [CE][CF][CG] [CA][CB][Ec] | %4
 [Dc][DB]F B2 c/_d/ | ecB [EA][EB][Ec] | [Fe][F_d][FB] [_DF]2 [Fd] | [Ec][CE][Ec] [_DB][DF][Fc] | %8
[M:5/8] G z z z2 |[M:1/8] c |[M:3/4] e-[B,e-] [_De-][Ee] _dB | c3 A2 c | [Ge]4 z2 | c4- c[CE] | %14
 [CE][CF] [CG][CA] [CB][Ec] | [_Ge]3 [F_d]2 [Fd] | [Ec][CE] [Ec][_DB] [DF][Fc] |[M:5/8] G z z z2 |] %18
V:2
 z3 z2 [A,,A,] | [A,,A,][A,,A,][A,,A,] [A,,E,][A,,E,][A,,A,] | %2
 [_D,F,_D][D,F,D][D,A,D] [A,,A,]2 [A,,A,] | [A,,A,][A,,A,][A,,E,] [A,,E,][A,,E,][A,,A,] | %4
 [B,,A,][B,,F,][D,A,] [E,G,E]2 [E,A,E]/[E,B,E]/ | [A,CE][A,E][E,G,E] [C,A,][B,,G,][A,,A,] | %6
 [_D,A,][D,A,][D,_D] [D,A,]2 [D,A,] | [A,,A,]2 [A,,A,] [_D,F,][D,A,][=D,A,] | %8
[M:5/8] E,F,G, [A,CE]2 |[M:1/8] [A,CE] |[M:3/4] [E,B,]G, B,[A,C] [F,B,E][G,B,E] | %11
 [A,E]3 [A,CE]2 [A,CE] | [E,B,]G, B,[E,G,F] [F,A,E][G,B,E] | [A,E]4- [A,E][A,,A,] | %14
 [A,,A,][A,,A,] [A,,E,][A,,E,] [A,,E,][A,,A,] | [C,A,]3 [_D,A,]2 [D,A,] | %16
 [A,,A,][A,,A,] [A,,A,][_D,F,] [D,A,][=D,A,] |[M:5/8] E,F,G, [A,CE]2 |] %18
V:3
 x6 | x6 | x6 | x6 | x6 | x6 | x6 | x6 |[M:5/8] [_DB]-[D-FB-][DEB] A2 |[M:1/8] x |[M:3/4] G4 z2 | %11
 x6 | z B, _D_d cB | x6 | x6 | x6 | x6 |[M:5/8] [_DB]-[D-FB-][DEB] A2 |] %18

